X: 4
T:I Went to Pick Some Blaeberries
% Nottingham Music Database
S:Joy
M:3/4
L:1/4
K:A
E|"A"A2A|"F#m"c2c|"C#m"e2e|"A"c3|"C#m"e2e|"F#m"c3|"A"e3/2d/2c|"E7"B2E|
"A"A2A|"F#m"c2c|"C#m"e2e|"A"c2E|"A"A2A|"D"B2c|"E7"B2B|"A"A2||<end>
<start>
